**harm	**harte	**timestamp	**phrase	**leadinstrument	**kern
*M4/4	*M4/4	*	*	*	*
*G:	*G:	*	*	*	*G:
1r;	N	0	.	r	1r;
=1	=1	=1	=1	=1	=1
*>A_intro	*>A_intro	*>A_intro	*>A_intro	*>A_intro	*>A_intro
1I	G:maj	0.513	newline	piano	1G 1b 1dd
=2	=2	=2	=2	=2	=2
1I	G:maj	2.574	.	piano	1G 1b 1dd
=3	=3	=3	=3	=3	=3
*>B_verse	*>B_verse	*>B_verse	*>B_verse	*>B_verse	*>B_verse
1I	G:maj	4.635	newline	voice	1G 1b 1dd
=4	=4	=4	=4	=4	=4
1iv	C:min	6.853	.	voice	1C 1e- 1g
=5	=5	=5	=5	=5	=5
1IV	C:maj	9.071	.	voice	1C 1e 1g
=6	=6	=6	=6	=6	=6
2I	G:maj	11.289	.	voice	2G 2b 2dd
2Vb	D:maj/3	12.398	.	voice	2d 2F# 2a
=7	=7	=7	=7	=7	=7
1vi	E:min	13.507	newline	voice	1E 1g 1b
=8	=8	=8	=8	=8	=8
1iii	B:min	15.704	.	voice	1B 1dd 1ff#
=9	=9	=9	=9	=9	=9
1IV	C:maj	17.901	.	voice	1C 1e 1g
=10	=10	=10	=10	=10	=10
1V	D:maj	20.098	.	voice	1D 1f# 1a
=11	=11	=11	=11	=11	=11
1I	G:maj	22.295	newline	voice	1G 1b 1dd
=12	=12	=12	=12	=12	=12
1iv	C:min	24.456	.	voice	1C 1e- 1g
=13	=13	=13	=13	=13	=13
1IV	C:maj	26.617	.	voice	1C 1e 1g
=14	=14	=14	=14	=14	=14
2I	G:maj	28.779	.	voice	2G 2b 2dd
2Vb	D:maj/3	29.86	.	voice	2d 2F# 2a
=15	=15	=15	=15	=15	=15
1vi	E:min	30.94	newline	voice	1E 1g 1b
=16	=16	=16	=16	=16	=16
1iii	B:min	33.097	.	voice	1B 1dd 1ff#
=17	=17	=17	=17	=17	=17
1v7	D:min7	35.253	.	voice	1D 1f 1a 1cc
=18	=18	=18	=18	=18	=18
1-VI	E-:maj	37.409	.	voice	1E- 1g 1b-
=19	=19	=19	=19	=19	=19
*>C_chorus	*>C_chorus	*>C_chorus	*>C_chorus	*>C_chorus	*>C_chorus
*B-:	*B-:	*	*	*	*B-:
1I	B-:maj	39.566	newline	voice	1B- 1dd 1ff
=20	=20	=20	=20	=20	=20
1iii7	D:min7	41.622	.	voice	1D 1f 1a 1cc
=21	=21	=21	=21	=21	=21
1IV	E-:maj	43.678	.	voice	1E- 1g 1b-
=22	=22	=22	=22	=22	=22
1IV	E-:maj	45.734	.	voice	1E- 1g 1b-
=23	=23	=23	=23	=23	=23
1-III	D-:maj	47.79	newline	voice	1D- 1f 1a-
=24	=24	=24	=24	=24	=24
1v7	F:min7	49.802	.	voice	1F 1a- 1cc 1ee-
=25	=25	=25	=25	=25	=25
1-VI	G-:maj	51.814	.	voice	1G- 1b- 1dd-
=26	=26	=26	=26	=26	=26
1-VI	G-:maj	53.826	.	voice	1G- 1b- 1dd-
=27	=27	=27	=27	=27	=27
1I	B-:maj	55.838	newline	voice	1B- 1dd 1ff
=28	=28	=28	=28	=28	=28
1iv	E-:min	57.836	.	voice	1E- 1g- 1b-
=29	=29	=29	=29	=29	=29
1I	B-:maj	59.833	.	voice	1B- 1dd 1ff
=30	=30	=30	=30	=30	=30
1iv	E-:min	61.83	.	voice	1E- 1g- 1b-
=31	=31	=31	=31	=31	=31
1I	B-:maj	63.828	newline	voice	1B- 1dd 1ff
=32	=32	=32	=32	=32	=32
1iv	E-:min	65.797	.	voice	1E- 1g- 1b-
=33	=33	=33	=33	=33	=33
*G:	*G:	*	*	*	*G:
1I	G:maj	67.767	.	voice	1G 1b 1dd
=34	=34	=34	=34	=34	=34
1I	G:maj	69.737	.	voice	1G 1b 1dd
=35	=35	=35	=35	=35	=35
*>B_verse	*>B_verse	*>B_verse	*>B_verse	*>B_verse	*>B_verse
1I	G:maj	71.706	newline	voice	1G 1b 1dd
=36	=36	=36	=36	=36	=36
1iv	C:min	73.824	.	voice	1C 1e- 1g
=37	=37	=37	=37	=37	=37
1IV	C:maj	75.941	.	voice	1C 1e 1g
=38	=38	=38	=38	=38	=38
2I	G:maj	78.059	.	voice	2G 2b 2dd
2Vb	D:maj/3	79.118	.	voice	2d 2F# 2a
=39	=39	=39	=39	=39	=39
1vi	E:min	80.177	newline	voice	1E 1g 1b
=40	=40	=40	=40	=40	=40
1iii	B:min	82.264	.	voice	1B 1dd 1ff#
=41	=41	=41	=41	=41	=41
1IV	C:maj	84.352	.	voice	1C 1e 1g
=42	=42	=42	=42	=42	=42
1V	D:maj	86.44	.	voice	1D 1f# 1a
=43	=43	=43	=43	=43	=43
1I	G:maj	88.528	newline	voice	1G 1b 1dd
=44	=44	=44	=44	=44	=44
1iv	C:min	90.573	.	voice	1C 1e- 1g
=45	=45	=45	=45	=45	=45
1IV	C:maj	92.617	.	voice	1C 1e 1g
=46	=46	=46	=46	=46	=46
2I	G:maj	94.662	.	voice	2G 2b 2dd
2Vb	D:maj/3	95.685	.	voice	2d 2F# 2a
=47	=47	=47	=47	=47	=47
1vi	E:min	96.707	newline	voice	1E 1g 1b
=48	=48	=48	=48	=48	=48
1iii	B:min	98.727	.	voice	1B 1dd 1ff#
=49	=49	=49	=49	=49	=49
1v7	D:min7	100.748	.	voice	1D 1f 1a 1cc
=50	=50	=50	=50	=50	=50
1-VI	E-:maj	102.768	.	voice	1E- 1g 1b-
=51	=51	=51	=51	=51	=51
*>C_chorus	*>C_chorus	*>C_chorus	*>C_chorus	*>C_chorus	*>C_chorus
*B-:	*B-:	*	*	*	*B-:
1I	B-:maj	104.788	newline	voice	1B- 1dd 1ff
=52	=52	=52	=52	=52	=52
1iii7	D:min7	106.791	.	voice	1D 1f 1a 1cc
=53	=53	=53	=53	=53	=53
1IV	E-:maj	108.795	.	voice	1E- 1g 1b-
=54	=54	=54	=54	=54	=54
1IV	E-:maj	110.798	.	voice	1E- 1g 1b-
=55	=55	=55	=55	=55	=55
1-III	D-:maj	112.801	newline	voice	1D- 1f 1a-
=56	=56	=56	=56	=56	=56
1v7	F:min7	114.759	.	voice	1F 1a- 1cc 1ee-
=57	=57	=57	=57	=57	=57
1-VI	G-:maj	116.717	.	voice	1G- 1b- 1dd-
=58	=58	=58	=58	=58	=58
1-VI	G-:maj	118.674	.	voice	1G- 1b- 1dd-
=59	=59	=59	=59	=59	=59
1I	B-:maj	120.632	newline	voice	1B- 1dd 1ff
=60	=60	=60	=60	=60	=60
1iv	E-:min	122.586	.	voice	1E- 1g- 1b-
=61	=61	=61	=61	=61	=61
1I	B-:maj	124.541	.	voice	1B- 1dd 1ff
=62	=62	=62	=62	=62	=62
1iv	E-:min	126.495	.	voice	1E- 1g- 1b-
=63	=63	=63	=63	=63	=63
1I	B-:maj	128.45	newline	voice	1B- 1dd 1ff
=64	=64	=64	=64	=64	=64
1iv	E-:min	130.441	.	voice	1E- 1g- 1b-
=65	=65	=65	=65	=65	=65
*G:	*G:	*	*	*	*G:
1I	G:maj	132.433	.	voice	1G 1b 1dd
=66	=66	=66	=66	=66	=66
1I	G:maj	134.424	.	voice	1G 1b 1dd
=67	=67	=67	=67	=67	=67
*>B_solo	*>B_solo	*>B_solo	*>B_solo	*>B_solo	*>B_solo
1I	G:maj	136.415	newline	guitar	1G 1b 1dd
=68	=68	=68	=68	=68	=68
1iv	C:min	138.391	.	guitar	1C 1e- 1g
=69	=69	=69	=69	=69	=69
1IV	C:maj	140.366	.	guitar	1C 1e 1g
=70	=70	=70	=70	=70	=70
2I	G:maj	142.341	.	guitar	2G 2b 2dd
2Vb	D:maj/3	143.329	.	guitar	2d 2F# 2a
=71	=71	=71	=71	=71	=71
1vi	E:min	144.316	newline	guitar	1E 1g 1b
=72	=72	=72	=72	=72	=72
1iii	B:min	146.303	.	guitar	1B 1dd 1ff#
=73	=73	=73	=73	=73	=73
1IV	C:maj	148.289	.	guitar	1C 1e 1g
=74	=74	=74	=74	=74	=74
1V	D:maj	150.275	.	guitar	1D 1f# 1a
=75	=75	=75	=75	=75	=75
1I	G:maj	152.261	newline	voice	1G 1b 1dd
=76	=76	=76	=76	=76	=76
1iv	C:min	154.239	.	voice	1C 1e- 1g
=77	=77	=77	=77	=77	=77
1IV	C:maj	156.218	.	voice	1C 1e 1g
=78	=78	=78	=78	=78	=78
2I	G:maj	158.196	.	voice	2G 2b 2dd
2Vb	D:maj/3	159.185	.	voice	2d 2F# 2a
=79	=79	=79	=79	=79	=79
1vi	E:min	160.174	newline	voice	1E 1g 1b
=80	=80	=80	=80	=80	=80
1iii	B:min	162.13	.	voice	1B 1dd 1ff#
=81	=81	=81	=81	=81	=81
1v7	D:min7	164.086	.	voice	1D 1f 1a 1cc
=82	=82	=82	=82	=82	=82
1-VI	E-:maj	166.042	.	voice	1E- 1g 1b-
=83	=83	=83	=83	=83	=83
*>C2_chorus	*>C2_chorus	*>C2_chorus	*>C2_chorus	*>C2_chorus	*>C2_chorus
*B-:	*B-:	*	*	*	*B-:
1I	B-:maj	167.998	newline	voice	1B- 1dd 1ff
=84	=84	=84	=84	=84	=84
1iii7	D:min7	169.974	.	voice	1D 1f 1a 1cc
=85	=85	=85	=85	=85	=85
1IV	E-:maj	171.949	.	voice	1E- 1g 1b-
=86	=86	=86	=86	=86	=86
1IV	E-:maj	173.924	.	voice	1E- 1g 1b-
=87	=87	=87	=87	=87	=87
1-III	D-:maj	175.899	newline	voice	1D- 1f 1a-
=88	=88	=88	=88	=88	=88
1v7	F:min7	177.834	.	voice	1F 1a- 1cc 1ee-
=89	=89	=89	=89	=89	=89
1-VI	G-:maj	179.769	.	voice	1G- 1b- 1dd-
=90	=90	=90	=90	=90	=90
1-VI	G-:maj	181.704	.	voice	1G- 1b- 1dd-
=91	=91	=91	=91	=91	=91
*>D_outro	*>D_outro	*>D_outro	*>D_outro	*>D_outro	*>D_outro
*G:	*G:	*	*	*	*G:
1I	G:maj	183.639	newline	voice	1G 1b 1dd
=92	=92	=92	=92	=92	=92
1iv	C:min	185.599	.	voice	1C 1e- 1g
=93	=93	=93	=93	=93	=93
1I	G:maj	187.559	.	voice	1G 1b 1dd
=94	=94	=94	=94	=94	=94
1iv	C:min	189.519	.	voice	1C 1e- 1g
=95	=95	=95	=95	=95	=95
1I	G:maj	191.479	newline	voice	1G 1b 1dd
=96	=96	=96	=96	=96	=96
1iv	C:min	193.413	.	voice	1C 1e- 1g
=97	=97	=97	=97	=97	=97
1I	G:maj	195.346	.	voice	1G 1b 1dd
=98	=98	=98	=98	=98	=98
1iv	C:min	197.28	.	voice	1C 1e- 1g
=99	=99	=99	=99	=99	=99
1I	G:maj	199.214	newline	voice	1G 1b 1dd
=100	=100	=100	=100	=100	=100
1iv	C:min	201.145	.	voice	1C 1e- 1g
=101	=101	=101	=101	=101	=101
1I	G:maj	203.076	.	voice	1G 1b 1dd
=102	=102	=102	=102	=102	=102
1iv	C:min	205.006	.	voice	1C 1e- 1g
=103	=103	=103	=103	=103	=103
1I	G:maj	206.937	newline	voice	1G 1b 1dd
=104	=104	=104	=104	=104	=104
1iv	C:min	208.848	.	voice	1C 1e- 1g
=105	=105	=105	=105	=105	=105
1I	G:maj	210.759	.	voice	1G 1b 1dd
=106	=106	=106	=106	=106	=106
1iv	C:min	212.67	.	voice	1C 1e- 1g
=107	=107	=107	=107	=107	=107
1I	G:maj	214.581	newline	voice	1G 1b 1dd
=108	=108	=108	=108	=108	=108
1iv	C:min	216.479	.	voice	1C 1e- 1g
=109	=109	=109	=109	=109	=109
1I	G:maj	218.377	.	voice	1G 1b 1dd
=110	=110	=110	=110	=110	=110
1iv	C:min	220.274	.	voice	1C 1e- 1g
=111	=111	=111	=111	=111	=111
1I	G:maj	222.172	newline	voice	1G 1b 1dd
=112	=112	=112	=112	=112	=112
1iv	C:min	224.081	.	voice	1C 1e- 1g
=113	=113	=113	=113	=113	=113
1I	G:maj	225.99	.	voice	1G 1b 1dd
=114	=114	=114	=114	=114	=114
1iv	C:min	227.899	.	voice	1C 1e- 1g
=115	=115	=115	=115	=115	=115
*>_fadeout	*>_fadeout	*>_fadeout	*>_fadeout	*>_fadeout	*>_fadeout
1I	G:maj	229.808	newline	voice	1G 1b 1dd
=116	=116	=116	=116	=116	=116
1iv	C:min	231.723	.	voice	1C 1e- 1g
=117	=117	=117	=117	=117	=117
1I	G:maj	233.637	.	voice	1G 1b 1dd
=118	=118	=118	=118	=118	=118
1iv	C:min	235.552	.	voice	1C 1e- 1g
=119	=119	=119	=119	=119	=119
1I	G:maj	237.467	newline	voice	1G 1b 1dd
=120	=120	=120	=120	=120	=120
1iv	C:min	238.27	.	voice	1C 1e- 1g
=121	=121	=121	=121	=121	=121
1I	G:maj	239.073	.	voice	1G 1b 1dd
=122	=122	=122	=122	=122	=122
1iv	C:min	239.876	.	voice	1C 1e- 1g
1r;	N	240.679	.	r	1r;
1r;	N	243.305	.	r	1r;
*-	*-	*-	*-	*-	*-
!!!OTL: Every Time I Think Of You
!!!COC: The Babys
!!!BillboardChartDate: 1979/02/03
!!!BillboardPeak: 13
!!!BillboardWeeksOnChart: 16
!!!SampleTargetRank: 37
!!!SampleActualRank: 37
!!!SampleID#: 1070
!!!RDF**harmony: **recip + pitch class of root + harmonic quality
!!!RDF**harte: Chris Harte's syntax, used by MIREX
!!!RDF**phrase: newline = linebreak in original McGill transcription
!!!RDF**timestamp: McGill audio timestamp in seconds
!!!RDF**leadinstrument: original McGill primary instrumentation annotation
!!!RDT: 2017/01/12/
!!!ENC: Nathaniel Condit-Schultz
!!!EST: Awating manual error checking and editing.
